raw/spot/spot-no-history.svg

<svg width="80" height="80" viewBox="0 0 80 80" fill="none" xmlns="http://www.w3.org/2000/svg">
<path fill-rule="evenodd" clip-rule="evenodd" d="M14 11H62C66.4183 11 70 14.5817 70 19V24.6008H69H7H6V19C6 14.5817 9.58172 11 14 11ZM6 27.0008V61C6 65.4183 9.58172 69 14 69H62C66.4183 69 70 65.4183 70 61V27.0008H69H7H6Z" fill="#E3E7F5"/>
<path d="M14.8 19.9984C15.7941 19.9984 16.6 19.1925 16.6 18.1984C16.6 17.2043 15.7941 16.3984 14.8 16.3984C13.8059 16.3984 13 17.2043 13 18.1984C13 19.1925 13.8059 19.9984 14.8 19.9984Z" fill="#D3D8EA"/>
<path d="M21.8 19.9984C22.7941 19.9984 23.6 19.1925 23.6 18.1984C23.6 17.2043 22.7941 16.3984 21.8 16.3984C20.8059 16.3984 20 17.2043 20 18.1984C20 19.1925 20.8059 19.9984 21.8 19.9984Z" fill="#D3D8EA"/>
<path d="M28.8 19.9984C29.7941 19.9984 30.6 19.1925 30.6 18.1984C30.6 17.2043 29.7941 16.3984 28.8 16.3984C27.8059 16.3984 27 17.2043 27 18.1984C27 19.1925 27.8059 19.9984 28.8 19.9984Z" fill="#D3D8EA"/>
<path d="M46 36H14C13.4477 36 13 36.4477 13 37V42C13 42.5523 13.4477 43 14 43H46C46.5523 43 47 42.5523 47 42V37C47 36.4477 46.5523 36 46 36Z" fill="#D3D8EA"/>
<path d="M40 51H14C13.4477 51 13 51.4477 13 52V55C13 55.5523 13.4477 56 14 56H40C40.5523 56 41 55.5523 41 55V52C41 51.4477 40.5523 51 40 51Z" fill="#D3D8EA"/>
<path d="M59.8008 50.6016V57.4473C59.8008 57.7534 60.0489 58.0016 60.355 58.0016H67.8008" stroke="#0066FF" stroke-width="3" stroke-linejoin="round"/>
<path d="M51.0645 42V49H58.0645" stroke="#0066FF" stroke-width="3"/>
<path d="M48.498 56.4961C48.498 63.6758 54.3183 69.4961 61.498 69.4961C68.6777 69.4961 74.498 63.6758 74.498 56.4961C74.498 49.3164 68.6777 43.4961 61.498 43.4961C58.006 43.4961 54.6356 45.0096 52.3 47.25" stroke="#0066FF" stroke-width="3.5"/>
</svg>

<svg width="80" height="80" viewBox="0 0 80 80" fill="none" xmlns="http://www.w3.org/2000/svg"><path fill-rule="evenodd" clip-rule="evenodd" d="M14 11h48a8 8 0 0 1 8 8v5.6H6V19a8 8 0 0 1 8-8zM6 27v34a8 8 0 0 0 8 8h48a8 8 0 0 0 8-8V27H6z" fill="#E3E7F5"/><path d="M14.8 19.998a1.8 1.8 0 1 0 0-3.6 1.8 1.8 0 0 0 0 3.6zM21.8 19.998a1.8 1.8 0 1 0 0-3.6 1.8 1.8 0 0 0 0 3.6zM28.8 19.998a1.8 1.8 0 1 0 0-3.6 1.8 1.8 0 0 0 0 3.6zM46 36H14a1 1 0 0 0-1 1v5a1 1 0 0 0 1 1h32a1 1 0 0 0 1-1v-5a1 1 0 0 0-1-1zM40 51H14a1 1 0 0 0-1 1v3a1 1 0 0 0 1 1h26a1 1 0 0 0 1-1v-3a1 1 0 0 0-1-1z" fill="#D3D8EA"/><path d="M59.8 50.602v6.845c0 .306.249.555.555.555h7.446" stroke="#06F" stroke-width="3" stroke-linejoin="round"/><path d="M51.065 42v7h7" stroke="#06F" stroke-width="3"/><path d="M48.498 56.496c0 7.18 5.82 13 13 13s13-5.82 13-13-5.82-13-13-13c-3.492 0-6.862 1.514-9.198 3.754" stroke="#06F" stroke-width="3.5"/></svg>
